X: 45
T: Miss Stewart of Allanbank's Strathspey
R: strathspey
Q: "Slow"
B: William Shepherd "1st Collection" 1793 p.4 #5
F: http://imslp.org/wiki/File:PMLP73094-Shepherd_Collections_HMT.pdf
C: William Shepherd (17??-1812)
Z: 2012 John Chambers <jc:trillian.mit.edu>
M: C
L: 1/16
K: Cm
GF |\
E3TC C3TD E3F {EF}G3E | [D3B,3]F B2GE DEFD B,2GF |\
E3TC C3TD E3F {EF}G3E | G2cd edc=B Tc2C2C2 :|
cd |\
{cd}e3d c2=B2 Tc4 G3E | D3F B2GE (DE).F.D B,2cd |\
{cd}e3d c2=B2 Tc4 G3E | DEFD {G}F2.E.D E2TC2 C2 ||
cd |\
{cd}e3d c2=B2 Tc4 G3E | D3F B2GE (DE).F.D B,AGF |\
E3C C3D {F}(ED).E.F EFGE | TG2cd (ed).c.=B Tc2C2C2 |]
